templates/event-template/img/circle-with-plus-teal.svg

<?xml version="1.0" encoding="utf-8"?>
<!-- Generated by IcoMoon.io -->
<!DOCTYPE svg PUBLIC "-//W3C//DTD SVG 1.1//EN" "http://www.w3.org/Graphics/SVG/1.1/DTD/svg11.dtd">
<svg version="1.1" xmlns="http://www.w3.org/2000/svg" xmlns:xlink="http://www.w3.org/1999/xlink" width="16" height="16" viewBox="0 0 16 16">
<path fill="#2cc7c1" d="M8 1.28c-3.711 0-6.72 3.009-6.72 6.72s3.009 6.72 6.72 6.72 6.72-3.009 6.72-6.72c0-3.711-3.009-6.72-6.72-6.72zM12 8.8h-3.2v3.2h-1.6v-3.2h-3.2v-1.6h3.2v-3.2h1.6v3.2h3.2v1.6z"></path>
</svg>

<svg xmlns="http://www.w3.org/2000/svg" width="16" height="16"><path fill="#2cc7c1" d="M8 1.28a6.72 6.72 0 1 0 0 13.44A6.72 6.72 0 0 0 8 1.28zm4 7.52H8.8V12H7.2V8.8H4V7.2h3.2V4h1.6v3.2H12v1.6z"/></svg>
